X: 26298
T: Memories Of East Clare
R: reel
M: 4/4
K: Aminor
|:A2GE AEGE|CDEC D(A,~A,2)|A2GE AEGE|CDEC D2EG|
A2GE AEGE|CDEC D(A,~A,2)|F2FD ~E3F|GECD EDD2:|
AddA cAGA|AddA cAGA|AddA cBcd|ed (3ddd edcd|
AddA cAGA|AddA cAGA|AddA cBcd|ed (3ddd egag||
eddc d2cd|ed (3ddd egag|eddg edcB|ABcd e^fg^f|
eddc d2cd|ed (3ddd egag|eddg edcB|ABcd edcB||

